X:1171
T:Cochin China
O:england
M:2/4
L:1/16
K:G
|:d4d2d2|B2G2B2d2|B2G2B2d2|d2c2 A4|
d4d2d2|B2G2B2d2|d2c2A2F2|G4z4:|
|:B4B2B2|G2E2 E4|c4c2c2|A2F2 F4|
d4d2d2|B2G2B2d2|d2c2A2F2|G4z4:|


